Numix/64/mimetypes/application-x-webarchive.svg

<?xml version="1.0" encoding="UTF-8" standalone="no"?>
<svg
   xmlns:dc="http://purl.org/dc/elements/1.1/"
   xmlns:cc="http://creativecommons.org/ns#"
   xmlns:rdf="http://www.w3.org/1999/02/22-rdf-syntax-ns#"
   xmlns:svg="http://www.w3.org/2000/svg"
   xmlns="http://www.w3.org/2000/svg"
   xmlns:sodipodi="http://sodipodi.sourceforge.net/DTD/sodipodi-0.dtd"
   xmlns:inkscape="http://www.inkscape.org/namespaces/inkscape"
   width="64px"
   height="64px"
   viewBox="0 0 64 64"
   version="1.1"
   id="svg2"
   inkscape:version="0.91 r13725"
   sodipodi:docname="application-x-webarchive.svg">
  <metadata
     id="metadata35">
    <rdf:RDF>
      <cc:Work
         rdf:about="">
        <dc:format>image/svg+xml</dc:format>
        <dc:type
           rdf:resource="http://purl.org/dc/dcmitype/StillImage" />
      </cc:Work>
    </rdf:RDF>
  </metadata>
  <defs
     id="defs33" />
  <sodipodi:namedview
     pagecolor="#ffffff"
     bordercolor="#666666"
     borderopacity="1"
     objecttolerance="10"
     gridtolerance="10"
     guidetolerance="10"
     inkscape:pageopacity="0"
     inkscape:pageshadow="2"
     inkscape:window-width="1366"
     inkscape:window-height="704"
     id="namedview31"
     showgrid="false"
     inkscape:zoom="1"
     inkscape:cx="24.043634"
     inkscape:cy="2.0256021"
     inkscape:window-x="0"
     inkscape:window-y="27"
     inkscape:window-maximized="1"
     inkscape:current-layer="svg2">
    <inkscape:grid
       type="xygrid"
       id="grid4163" />
  </sodipodi:namedview>
  <g
     id="surface1">
    <path
       style=" stroke:none;fill-rule:nonzero;fill:rgb(75.686275%,58.431373%,32.54902%);fill-opacity:1;"
       d="M 10.671875 0 C 9.296875 0 8 1.355469 8 2.789062 L 8 61.210938 C 8 62.566406 9.375 64 10.671875 64 L 53.328125 64 C 54.625 64 56 62.566406 56 61.210938 L 56 18 L 38 0 Z M 10.671875 0 "
       id="path5" />
    <path
       style=" stroke:none;fill-rule:nonzero;fill:rgb(0%,0%,0%);fill-opacity:0.196078;"
       d="M 8 48 L 8 61.335938 C 8 62.632812 9.375 64 10.664062 64 L 53.335938 64 C 54.625 64 56 62.632812 56 61.335938 L 56 48 Z M 8 48 "
       id="path7" />
    <path
       style=" stroke:none;fill-rule:nonzero;fill:rgb(0%,0%,0%);fill-opacity:0.196078;"
       d="M 42 18 L 56 32 L 56 18 Z M 42 18 "
       id="path9" />
    <path
       style=" stroke:none;fill-rule:nonzero;fill:rgb(100%,100%,100%);fill-opacity:0.392157;"
       d="M 38 0 L 55.984375 18 L 40.757812 18 C 39.410156 18 38 16.574219 38 15.226562 Z M 38 0 "
       id="path11" />
    <path
       style=" stroke:none;fill-rule:evenodd;fill:rgb(97.647059%,97.647059%,97.647059%);fill-opacity:1;"
       d="M 18 0 L 24 0 L 24 6 L 18 6 Z M 18 0 "
       id="path13" />
    <path
       style=" stroke:none;fill-rule:evenodd;fill:rgb(97.647059%,97.647059%,97.647059%);fill-opacity:1;"
       d="M 24 6 L 30 6 L 30 12 L 24 12 Z M 24 6 "
       id="path15" />
    <path
       style=" stroke:none;fill-rule:evenodd;fill:rgb(97.647059%,97.647059%,97.647059%);fill-opacity:1;"
       d="M 18 12 L 24 12 L 24 18 L 18 18 Z M 18 12 "
       id="path17" />
    <path
       style=" stroke:none;fill-rule:evenodd;fill:rgb(97.647059%,97.647059%,97.647059%);fill-opacity:1;"
       d="M 24 18 L 30 18 L 30 24 L 24 24 Z M 24 18 "
       id="path19" />
    <path
       style=" stroke:none;fill-rule:evenodd;fill:rgb(97.647059%,97.647059%,97.647059%);fill-opacity:1;"
       d="M 18 24 L 24 24 L 24 30 L 18 30 Z M 18 24 "
       id="path21" />
    <path
       style=" stroke:none;fill-rule:evenodd;fill:rgb(97.647059%,97.647059%,97.647059%);fill-opacity:1;"
       d="M 18 32 L 30 32 L 30 44 L 18 44 Z M 18 32 "
       id="path23" />
    <path
       style="fill:#ffffff;fill-opacity:1;fill-rule:nonzero;stroke:none"
       d="m 34.61637,62 -0.546502,-2.541446 -3.080279,0 L 30.458376,62 28.066,62 c 0.951742,-3.824528 2.151777,-7.496413 3.290471,-11 l 2.510847,0 c 1.248949,3.725771 2.362172,7.496546 3.221682,11 l -2.47263,0 m -2.063712,-8.86596 c -0.477849,1.511419 -0.844469,3.023352 -1.138861,4.516402 l 2.262438,0 C 33.41385,56.088675 32.972999,54.582932 32.552658,53.13404"
       id="path27"
       inkscape:connector-curvature="0"
       sodipodi:nodetypes="ccccccccccccc" />
    <path
       style="fill:#ffffff;fill-opacity:1;fill-rule:nonzero;stroke:none"
       d="m 40.782141,50.9 c 0.635173,0 1.204256,0.06197 1.721938,0.209141 0.514015,0.139428 0.961941,0.360188 1.332762,0.65841 0.370825,0.294347 0.653529,0.670027 0.840777,1.130913 0.209277,0.449268 0.308407,0.983741 0.308407,1.595675 0,0.642916 -0.132172,1.219992 -0.392852,1.738973 -0.264348,0.522854 -0.70126,0.917899 -1.310731,1.189009 C 44.259607,58.875192 45.023584,60.41609 45.724,62 l -2.3204,0 c -0.58004,-1.475397 -1.395486,-2.80741 -2.140493,-4.043406 l -1.149185,0 0,4.043406 L 37.9,62 37.9,51.182728 C 38.862251,50.961449 39.817068,50.925688 40.782141,50.9 m 1.960588,3.578645 c 0,-0.577076 -0.187248,-1.003104 -0.539714,-1.278087 -0.363479,-0.267237 -0.833431,-0.406664 -1.420874,-0.406664 -0.230885,-0.0077 -0.456336,0.03967 -0.668219,0.05809 l 0,3.292046 0.484642,0 c 0.756331,0 1.303387,-0.139429 1.633825,-0.422157 0.341452,-0.294347 0.51034,-0.708758 0.51034,-1.243232"
       id="path29"
       inkscape:connector-curvature="0"
       sodipodi:nodetypes="ccccscccccccccccccccscc" />
  </g>
  <path
     style="fill:#ffffff;fill-opacity:1;fill-rule:nonzero;stroke:none"
     d="m 24.270879,55 c 0.427413,1.577235 0.962155,3.033406 1.427658,4.554679 C 25.681183,56.660454 25.634958,53.822217 25.61972,51 l 2.23628,0 c -0.138501,3.736006 -0.358806,7.377043 -0.722065,11 l -2.00414,0 C 24.499998,60.334578 23.971536,58.708705 23.404224,57.129078 22.771077,58.802145 22.212446,60.388971 21.647698,62 l -2.00414,0 C 19.177499,58.30076 19.005407,54.625554 18.877,51 l 2.236279,0 c -0.04128,2.895184 -0.07964,5.725546 -0.100096,8.554679 C 21.515187,57.970036 22.008112,56.58856 22.506616,55"
     id="path19-2"
     inkscape:connector-curvature="0"
     sodipodi:nodetypes="ccccccccccccc" />
</svg>

<svg xmlns="http://www.w3.org/2000/svg" viewBox="0 0 64 64">
 <g>
  <path d="m 10.672 0 c -1.375 0 -2.672 1.355 -2.672 2.789 l 0 58.42 c 0 1.355 1.375 2.789 2.672 2.789 l 42.656 0 c 1.297 0 2.672 -1.434 2.672 -2.789 l 0 -43.21 l -18 -18 m -27.328 0" style="fill:#c19553;fill-opacity:1;stroke:none;fill-rule:nonzero"/>
  <path d="m 8 48 l 0 13.336 c 0 1.297 1.375 2.664 2.664 2.664 l 42.672 0 c 1.289 0 2.664 -1.367 2.664 -2.664 l 0 -13.336 m -48 0" style="fill:#000;fill-opacity:0.196;stroke:none;fill-rule:nonzero"/>
  <path d="m 42 18 l 14 14 l 0 -14 m -14 0" style="fill:#000;fill-opacity:0.196;stroke:none;fill-rule:nonzero"/>
  <path d="m 38 0 l 17.984 18 l -15.227 0 c -1.348 0 -2.758 -1.426 -2.758 -2.773 m 0 -15.227" style="fill:#fff;fill-opacity:0.392;stroke:none;fill-rule:nonzero"/>
  <path d="m 18 0 l 6 0 l 0 6 l -6 0 m 0 -6" style="fill:#f9f9f9;fill-opacity:1;stroke:none;fill-rule:evenodd"/>
  <path d="m 24 6 l 6 0 l 0 6 l -6 0 m 0 -6" style="fill:#f9f9f9;fill-opacity:1;stroke:none;fill-rule:evenodd"/>
  <path d="m 18 12 l 6 0 l 0 6 l -6 0 m 0 -6" style="fill:#f9f9f9;fill-opacity:1;stroke:none;fill-rule:evenodd"/>
  <path d="m 24 18 l 6 0 l 0 6 l -6 0 m 0 -6" style="fill:#f9f9f9;fill-opacity:1;stroke:none;fill-rule:evenodd"/>
  <path d="m 18 24 l 6 0 l 0 6 l -6 0 m 0 -6" style="fill:#f9f9f9;fill-opacity:1;stroke:none;fill-rule:evenodd"/>
  <path d="m 18 32 l 12 0 l 0 12 l -12 0 m 0 -12" style="fill:#f9f9f9;fill-opacity:1;stroke:none;fill-rule:evenodd"/>
  <path d="m 34.616 62 -0.547 -2.541 -3.08 0 l -0.531 2.541 -2.392 0 c 0.952 -3.825 2.152 -7.496 3.29 -11 l 2.511 0 c 1.249 3.726 2.362 7.497 3.222 11 l -2.473 0 m -2.064 -8.866 c -0.478 1.511 -0.844 3.02 -1.139 4.516 l 2.262 0 c -0.262 -1.562 -0.703 -3.068 -1.124 -4.516" style="fill:#fff;fill-opacity:1;stroke:none;fill-rule:nonzero"/>
  <path d="m 40.782 50.9 c 0.635 0 1.204 0.062 1.722 0.209 0.514 0.139 0.962 0.36 1.333 0.658 0.371 0.294 0.654 0.67 0.841 1.131 0.209 0.449 0.308 0.984 0.308 1.596 0 0.643 -0.132 1.22 -0.393 1.739 -0.264 0.523 -0.701 0.918 -1.311 1.189 c 0.977 1.453 1.741 2.994 2.442 4.578 l -2.32 0 c -0.58 -1.475 -1.395 -2.807 -2.14 -4.04 l -1.149 0 0 4.04 l -2.214 0 0 -10.817 c 0.962 -0.221 1.917 -0.257 2.882 -0.283 m 1.961 3.579 c 0 -0.577 -0.187 -1 -0.54 -1.278 -0.363 -0.267 -0.833 -0.407 -1.421 -0.407 -0.231 -0.008 -0.456 0.04 -0.668 0.058 l 0 3.292 0.485 0 c 0.756 0 1.303 -0.139 1.634 -0.422 0.341 -0.294 0.51 -0.709 0.51 -1.243" style="fill:#fff;fill-opacity:1;stroke:none;fill-rule:nonzero"/>
 </g>
 <path d="m 24.271 55 c 0.427 1.577 0.962 3.033 1.428 4.555 c -0.017 -2.894 -0.064 -5.732 -0.079 -8.555 l 2.236 0 c -0.139 3.736 -0.359 7.377 -0.722 11 l -2 0 c -0.63 -1.665 -1.158 -3.291 -1.726 -4.871 -0.633 1.673 -1.192 3.26 -1.757 4.871 l -2 0 c -0.466 -3.699 -0.638 -7.374 -0.767 -11 l 2.236 0 c -0.041 2.895 -0.08 5.726 -0.1 8.555 c 0.502 -1.585 0.995 -2.966 1.493 -4.555" style="fill:#fff;fill-opacity:1;stroke:none;fill-rule:nonzero"/>
</svg>
